src/helpers/heroicons/solid/paper-clip.svg

<svg width="24" height="24" viewBox="0 0 24 24" fill="none" xmlns="http://www.w3.org/2000/svg">
<path fill-rule="evenodd" clip-rule="evenodd" d="M18.9696 3.65901C18.0909 2.78033 16.6663 2.78033 15.7876 3.65901L4.84835 14.5983C3.38388 16.0628 3.38388 18.4372 4.84835 19.9016C6.31282 21.3661 8.68718 21.3661 10.1517 19.9016L17.8446 12.2087C18.1375 11.9158 18.6124 11.9158 18.9053 12.2087C19.1982 12.5015 19.1982 12.9764 18.9053 13.2693L11.2123 20.9623C9.16206 23.0126 5.83794 23.0126 3.78769 20.9623C1.73744 18.9121 1.73744 15.5879 3.78769 13.5377L14.7269 2.59835C16.1914 1.13388 18.5658 1.13388 20.0302 2.59835C21.4947 4.06281 21.4947 6.43718 20.0302 7.90165L9.09735 18.8346C9.09452 18.8374 9.09167 18.8403 9.08878 18.8432L9.08191 18.85L9.07971 18.8522L9.07747 18.8544C8.19765 19.7196 6.78319 19.7152 5.90901 18.841C5.03033 17.9623 5.03033 16.5377 5.90901 15.659L13.7195 7.84833C14.0124 7.55543 14.4873 7.55542 14.7802 7.84831C15.0731 8.1412 15.0731 8.61608 14.7802 8.90897L6.96968 16.7197C6.67678 17.0125 6.67678 17.4874 6.96967 17.7803C7.26041 18.0711 7.73056 18.0732 8.02383 17.7867L18.9696 6.84099C19.8483 5.96231 19.8483 4.53769 18.9696 3.65901Z" />
</svg>

<svg xmlns="http://www.w3.org/2000/svg" viewBox="0 0 24 24" fill="currentColor" aria-hidden="true" data-slot="icon">
  <path fill-rule="evenodd" d="M18.97 3.659a2.25 2.25 0 0 0-3.182 0l-10.94 10.94a3.75 3.75 0 1 0 5.304 5.303l7.693-7.693a.75.75 0 0 1 1.06 1.06l-7.693 7.693a5.25 5.25 0 1 1-7.424-7.424l10.939-10.94a3.75 3.75 0 1 1 5.303 5.304L9.097 18.835l-.008.008-.007.007-.002.002-.003.002A2.25 2.25 0 0 1 5.91 15.66l7.81-7.81a.75.75 0 0 1 1.061 1.06l-7.81 7.81a.75.75 0 0 0 1.054 1.068L18.97 6.84a2.25 2.25 0 0 0 0-3.182Z" clip-rule="evenodd"/>
</svg>
